svg/set/.alt/3ED-1/R.svg

<?xml version="1.0" encoding="UTF-8" standalone="no"?>
<svg
   width="143pt"
   height="200pt"
   viewBox="0 0 143 200"
   version="1.1"
   id="svg3"
   xmlns="http://www.w3.org/2000/svg"
   xmlns:svg="http://www.w3.org/2000/svg">
  <defs
     id="defs3" />
  <g
     id="g3">
    <polygon
       fill="url(#radialGradient856)"
       points="134,190 10,190 10,9 134,9 "
       id="polygon1"
       style="fill:url(#radialGradient856)" />
    <radialGradient
       cx="0"
       cy="0"
       r="1"
       fx="0"
       fy="0"
       id="radialGradient856"
       gradientUnits="userSpaceOnUse"
       gradientTransform="matrix(71.5,0,0,-71.5,71.5,100)"
       spreadMethod="pad">
      <stop
         style="stop-color:#ebd491"
         offset="0"
         id="stop1" />
      <stop
         style="stop-color:#d2bb7b"
         offset="0.7"
         id="stop2" />
      <stop
         style="stop-color:#8b723c"
         offset="1"
         id="stop3" />
    </radialGradient>
    <path
       d="M 0,0 H 143 V 200 H 0 V 0 m 10,9 c -0.01,13.24 0.02,26.47 -0.02,39.71 0.45,-0.11 1.34,-0.33 1.78,-0.44 12.67,2.13 25.44,4.57 38.35,3.91 2.75,-0.56 4.7,-2.76 6.87,-4.36 7.95,-6.49 18.76,-8.39 28.76,-7.23 9.38,1 18.87,5.23 24.52,13.01 6.55,8.48 7.33,20.2 4.63,30.25 -3.32,10.17 -13.57,14.94 -21.71,20.65 6.65,12.61 15.44,23.85 24.1,35.1 2.6,3.14 4.11,7.25 7.5,9.67 2.86,1.37 6.14,1.34 9.22,1.92 C 134.01,103.79 134,56.4 134,9 92.67,9 51.33,9 10,9 m 54.52,42.7 c -4.02,1.04 -7.59,3.99 -9.07,7.92 -1.81,4.54 -1.41,9.55 -1.45,14.35 0.03,5.63 -0.5,11.63 2.21,16.8 2.59,5.09 8.26,7.74 13.73,8.34 7.41,1.17 15.75,-0.48 21.02,-6.16 5.05,-4.78 6.29,-12.27 5.47,-18.92 C 95.84,66.58 92.27,59.19 86.07,54.85 79.8,50.67 71.71,50.19 64.52,51.7 M 10,52.87 c 0,45.71 0,91.42 0,137.13 41.33,0 82.67,0 124,0 0,-11.25 0.01,-22.5 -0.01,-33.75 -7,0.02 -14,-0.02 -21,0.02 -1.53,-0.1 -3.27,0.33 -4.53,-0.78 -6.16,-3.9 -9.7,-10.51 -13.61,-16.43 -5.92,-8.91 -11.72,-17.99 -18.89,-25.97 -5.04,-5.78 -12.74,-8.72 -20.33,-8.64 -1.15,6.77 -0.82,13.68 -0.88,20.52 0.17,6.94 -0.83,13.92 0.1,20.83 0.29,2.55 1.93,4.99 4.55,5.54 6.97,1.79 14.24,0.43 21.34,1.01 2.33,0.82 1.57,4.11 0.45,5.7 -6.42,0.16 -12.77,-0.93 -19.17,-1.29 -11.65,0.09 -23.34,-0.51 -34.92,1.04 -3.67,-0.02 -7.65,1.62 -11.13,0.07 -0.24,-0.78 -0.72,-2.34 -0.96,-3.11 5.37,-3.95 12.57,-1.48 18.62,-3.2 3.13,-3.66 2.68,-8.96 3.27,-13.46 C 37.14,123.06 36.93,108.01 37,92.97 37.19,82.76 36.39,72.51 34.32,62.51 33.7,60.21 33.24,57.15 30.55,56.4 23.89,54.21 16.6,55.32 10,52.87 Z"
       id="path3" />
  </g>
</svg>

<?xml version="1.0" encoding="UTF-8"?>
<svg xmlns="http://www.w3.org/2000/svg" xmlns:xlink="http://www.w3.org/1999/xlink" width="143pt" height="200pt" viewBox="0 0 143 200" version="1.1">
  <g>
    <polygon fill="url(#radialGradient856)" points="10,9 134,9 134,190 10,190"/>
    <radialGradient cx="0" cy="0" r="1" fx="0" fy="0" id="radialGradient856" gradientUnits="userSpaceOnUse" gradientTransform="matrix(71.5,0,0,-71.5,71.5,100)" spreadMethod="pad">
      <stop style="stop-color:#ebd491" offset="0"/>
      <stop style="stop-color:#d2bb7b" offset="0.7"/>
      <stop style="stop-color:#8b723c" offset="1"/>
    </radialGradient>
    <path d=" M 0.00 0.00 L 143.00 0.00 L 143.00 200.00 L 0.00 200.00 L 0.00 0.00 M 10.00 9.00 C 9.99 22.24 10.02 35.47 9.98 48.71 C 10.43 48.60 11.32 48.38 11.76 48.27 C 24.43 50.40 37.20 52.84 50.11 52.18 C 52.86 51.62 54.81 49.42 56.98 47.82 C 64.93 41.33 75.74 39.43 85.74 40.59 C 95.12 41.59 104.61 45.82 110.26 53.60 C 116.81 62.08 117.59 73.80 114.89 83.85 C 111.57 94.02 101.32 98.79 93.18 104.50 C 99.83 117.11 108.62 128.35 117.28 139.60 C 119.88 142.74 121.39 146.85 124.78 149.27 C 127.64 150.64 130.92 150.61 134.00 151.19 C 134.01 103.79 134.00 56.40 134.00 9.00 C 92.67 9.00 51.33 9.00 10.00 9.00 M 64.52 51.70 C 60.50 52.74 56.93 55.69 55.45 59.62 C 53.64 64.16 54.04 69.17 54.00 73.97 C 54.03 79.60 53.50 85.60 56.21 90.77 C 58.80 95.86 64.47 98.51 69.94 99.11 C 77.35 100.28 85.69 98.63 90.96 92.95 C 96.01 88.17 97.25 80.68 96.43 74.03 C 95.84 66.58 92.27 59.19 86.07 54.85 C 79.80 50.67 71.71 50.19 64.52 51.70 M 10.00 52.87 C 10.00 98.58 10.00 144.29 10.00 190.00 C 51.33 190.00 92.67 190.00 134.00 190.00 C 134.00 178.75 134.01 167.50 133.99 156.25 C 126.99 156.27 119.99 156.23 112.99 156.27 C 111.46 156.17 109.72 156.60 108.46 155.49 C 102.30 151.59 98.76 144.98 94.85 139.06 C 88.93 130.15 83.13 121.07 75.96 113.09 C 70.92 107.31 63.22 104.37 55.63 104.45 C 54.48 111.22 54.81 118.13 54.75 124.97 C 54.92 131.91 53.92 138.89 54.85 145.80 C 55.14 148.35 56.78 150.79 59.40 151.34 C 66.37 153.13 73.64 151.77 80.74 152.35 C 83.07 153.17 82.31 156.46 81.19 158.05 C 74.77 158.21 68.42 157.12 62.02 156.76 C 50.37 156.85 38.68 156.25 27.10 157.80 C 23.43 157.78 19.45 159.42 15.97 157.87 C 15.73 157.09 15.25 155.53 15.01 154.76 C 20.38 150.81 27.58 153.28 33.63 151.56 C 36.76 147.90 36.31 142.60 36.90 138.10 C 37.14 123.06 36.93 108.01 37.00 92.97 C 37.19 82.76 36.39 72.51 34.32 62.51 C 33.70 60.21 33.24 57.15 30.55 56.40 C 23.89 54.21 16.60 55.32 10.00 52.87 Z"/>
  </g>
</svg>
